X:20
T:Valse landaise
C:trad.
A:Landes
O:France
Z:S. Piron
M:3/4
L:1/8
Q:1/4=190
K:G
g4f2|e3 f ed|cd cB AG|F2 DF Ac|f4e2|d4c2|BA Bc BA|1B3G Bd:|2G4D2|
|:BG DG Bd|BG DG Bd|cB AF Ac|B2G2D2|BG DG Bd|BG DG Bd|cB AF DF|1G4D2:|2G4 Bd||
